X: 11
T: Coco Roco
C: Keith Murphy
R: jig
B: Keith Murphy "Black Isle Music II" p.11 2012
Z: 2017 John Chambers <jc:trillian.mit.edu>
M: 6/8
L: 1/8
K: Emix
|:\
"E"E2B AAB | dBA GAB |\
E2B AAB | =GG2G "D"FED |\
"E"E2B AAB | dBd e2f |\
"C"=g2g "D"fed | "B7"BAG "E"E2D :|
|:\
"Em"e2f "C"=gfe | "D"dBA "Bm"B2d |\
"Em"e2f "A7"=g^ga | "B7"bag "Em"e2B |\
"Em"e2f "C"=gfe | "D"dBA "Bm"Bde |\
"A"age dBA | "E"GAB "D"D3 :|

%%sep 1 1 500

